X:134
T:Kilcooley Wood
R:hornpipe
C:Sean Ryan (-1985)
Z:id:hn-hornpipe-134
M:C|
L:1/8
K:G
GE | DGGA BGcA | BGAF GABc | dg~g2 fgag | fdcA (3Bcd AF |
DGGA BGcA | BGAF GABc | dg~g2 fdcA |1 (3Bcd AF G2 :|2 (3Bcd AF GA ||
|: Bc | dg~g2 fgaf | dgga bgaf | defg abag | fdcA BGAF |
DGGA BGcA | BGAF GABc | dg~g2 fdcA |1 (3Bcd AF GA :|2 (3Bcd AF G2 ||

